svgs/sharp-solid/bring-front.svg

<svg xmlns="http://www.w3.org/2000/svg" viewBox="0 0 640 512"><!--! Font Awesome Pro 6.6.0 by @fontawesome - https://fontawesome.com License - https://fontawesome.com/license (Commercial License) Copyright 2024 Fonticons, Inc. --><path d="M64 64l64 0 32 0 32 0 64 0 0-64L192 0 64 0 0 0 0 64 0 192l0 64 64 0 64 0 0-64-64 0L64 64zM480 448l-32 0-64 0 0 64 64 0 128 0 64 0 0-64 0-128 0-64-64 0-64 0 0 64 64 0 0 128-64 0-32 0zm0-352L160 96l0 320 320 0 0-320z"/></svg>

<svg xmlns="http://www.w3.org/2000/svg" viewBox="0 0 640 512"><!--! Font Awesome Pro 6.5.2 by @fontawesome - https://fontawesome.com License - https://fontawesome.com/license (Commercial License) Copyright 2024 Fonticons, Inc. --><path d="M64 64h64 32 32 64V0H192 64 0V64 192v64H64h64V192H64V64zM480 448H448 384v64h64H576h64V448 320 256H576 512v64h64V448H512 480zm0-352H160V416H480V96z"/></svg>
